X:4
T:The Shakins' O'The Pocky
M:4/4
L:1/4
Q:100
R:Slow air
Z:Frederick Faller
F:fredmusic1.ABC
D:Natalie McMaster, "My roots are Showing"
K:Bb
D/C/ |: B,>D F>G |F<D B,>A | B B/A/ G A/4B/4c/ | d4|e>c d>B | c>A B G |[1 F>D B>D |
E>D C D/C/ :|[2 F E/D/ E D/C/ | B,4 || b>f d>B | g e c a | b f e/d/ c/<B/ |
f3 (3f/g/a/ | b>f d>B | g e c B |A>B c<f | B3 (3f/g/a/ | b>f d>B | g e c a |
b f e/<d/ c/<B/ | f3 e |  d>B e>c | d/c/ B<A (B2 | B) G/F/ (F2 | F) E/D/ (E2| E) D/C/ B,2||
